polymer/images/features1.svg

<svg width="82" height="108" viewBox="0 0 82 108" fill="none" xmlns="http://www.w3.org/2000/svg">
<path d="M18.744 104.408H3.36966C2.90971 104.408 2.51758 104.013 2.51758 103.554V63.3561C2.51758 62.8973 2.90971 62.5024 3.36966 62.5024H18.744C19.2039 62.5024 19.5998 62.8973 19.5998 63.3561V103.554C19.5998 104.017 19.2266 104.408 18.744 104.408Z" fill="white" stroke="url(#paint0_linear)" stroke-miterlimit="10" stroke-linecap="round" stroke-linejoin="round"></path>
<path d="M41.5039 2.62597V19.9273C41.5039 21.0178 42.4012 21.9165 43.4982 21.9165C44.5916 21.9165 45.4889 21.0216 45.4889 19.9273V2.62597C45.4889 1.53547 44.5916 0.636719 43.4982 0.636719C42.3785 0.636719 41.5039 1.53547 41.5039 2.62597Z" fill="black"></path>
<path d="M79.5251 39.5215H62.1791C61.0858 39.5215 60.1885 40.4164 60.1885 41.5107C60.1885 42.6049 61.0858 43.4999 62.1791 43.4999H79.5251C80.6184 43.4999 81.5196 42.6049 81.5196 41.5107C81.5196 40.4164 80.6222 39.5215 79.5251 39.5215Z" fill="black"></path>
<path d="M5.45117 41.5107C5.45117 42.6012 6.34842 43.4999 7.4455 43.4999H24.7916C25.8849 43.4999 26.786 42.6049 26.786 41.5107C26.786 40.4164 25.8887 39.5215 24.7916 39.5215H7.4455C6.34842 39.5215 5.45117 40.4202 5.45117 41.5107Z" fill="black"></path>
<path d="M16.2259 13.9412C16.5992 13.569 16.8178 13.0689 16.8178 12.5424C16.8178 12.016 16.5992 11.5159 16.2259 11.1436C15.8527 10.7713 15.3512 10.5532 14.8234 10.5532C14.2994 10.5532 13.7942 10.7713 13.4209 11.1436C13.0477 11.5159 12.8291 12.016 12.8291 12.5424C12.8291 13.0651 13.0477 13.569 13.4209 13.9412C13.7942 14.3135 14.2956 14.5317 14.8234 14.5317C15.3512 14.5317 15.8565 14.3135 16.2259 13.9412Z" fill="black"></path>
<path d="M21.5945 19.2952C20.8292 20.0585 20.8292 21.3258 21.5945 22.0929C21.9866 22.4877 22.4918 22.6832 22.997 22.6832C23.5022 22.6832 24.0263 22.4877 24.3995 22.0929C25.1648 21.3295 25.1648 20.0623 24.3995 19.2952C23.6304 18.5318 22.3598 18.5318 21.5945 19.2952Z" fill="black"></path>
<path d="M20.3232 18.0275C21.0885 17.2641 21.0885 15.9969 20.3232 15.2297C19.5579 14.4664 18.2874 14.4664 17.5183 15.2297C16.753 15.9931 16.753 17.2603 17.5183 18.0275C17.9142 18.4223 18.4156 18.5953 18.9208 18.5953C19.4222 18.6178 19.9274 18.4223 20.3232 18.0275Z" fill="black"></path>
<path d="M25.6884 23.3794C25.3152 23.7517 25.1191 24.2518 25.1191 24.7783C25.1191 25.3047 25.3379 25.8049 25.7111 26.1771C26.0843 26.5494 26.5858 26.7675 27.1136 26.7675C27.6376 26.7675 28.1427 26.5494 28.516 26.1771C28.8892 25.8049 29.1079 25.3047 29.1079 24.7783C29.1079 24.2556 28.8892 23.7517 28.516 23.3794C28.1427 23.0072 27.6414 22.7891 27.1136 22.7891C26.5669 22.7891 26.039 23.0109 25.6884 23.3794Z" fill="black"></path>
<path d="M68.8819 12.4132C68.5086 12.7854 68.29 13.2855 68.29 13.812C68.29 14.3384 68.5086 14.8386 68.8819 15.2109C69.2551 15.5832 69.7566 15.8012 70.2844 15.8012C70.8084 15.8012 71.3136 15.5832 71.6869 15.2109C72.0601 14.8386 72.2562 14.3384 72.2562 13.812C72.2562 13.2893 72.0375 12.7854 71.6869 12.4132C71.3136 12.0409 70.8084 11.8453 70.2844 11.8453C69.7792 11.8228 69.2513 12.0409 68.8819 12.4132Z" fill="black"></path>
<path d="M62.1143 23.9284C62.6195 23.9284 63.1208 23.7329 63.5167 23.3606C64.282 22.5972 64.282 21.33 63.5167 20.5667C62.7514 19.8033 61.4809 19.8033 60.7156 20.5667C59.9503 21.33 59.9503 22.5972 60.7156 23.3606C61.1039 23.7517 61.6091 23.9284 62.1143 23.9284Z" fill="black"></path>
<path d="M64.8064 16.4744C64.0411 17.2377 64.0411 18.5049 64.8064 19.2683C65.1985 19.6631 65.7037 19.8587 66.2089 19.8587C66.7141 19.8587 67.2154 19.6631 67.6113 19.2683C68.3766 18.5049 68.3766 17.2377 67.6113 16.4744C66.8422 15.711 65.5755 15.711 64.8064 16.4744Z" fill="black"></path>
<path d="M56.0449 26.0448C56.0449 26.5712 56.2636 27.0713 56.6369 27.4436C57.0101 27.8159 57.5116 28.034 58.0394 28.034C58.5672 28.034 59.0685 27.8159 59.4418 27.4436C59.815 27.0713 60.0337 26.5712 60.0337 26.0448C60.0337 25.5221 59.815 25.0182 59.4418 24.6459C59.0685 24.2736 58.5672 24.0781 58.0394 24.0781C57.5153 24.0781 57.0101 24.2962 56.6369 24.6459C56.2636 24.9956 56.0449 25.5221 56.0449 26.0448Z" fill="black"></path>
<path d="M81.1687 67.0926C81.1687 60.9332 76.1546 55.9281 69.9754 55.9281H52.5841V43.4099C52.5841 38.1454 51.0497 34.3437 47.9846 32.1139C43.1665 28.5754 36.5312 30.6059 36.2673 30.6924C35.4341 30.9556 34.8874 31.719 34.8874 32.5726V46.5987C34.8874 57.6542 22.0315 61.4333 21.4811 61.5837C21.2209 61.6514 20.9985 61.783 20.8025 61.9334C20.1239 61.0798 19.072 60.5346 17.9109 60.5346H4.22171C2.18588 60.5346 0.519531 62.1966 0.519531 64.2272V102.699C0.519531 104.73 2.18211 106.392 4.22171 106.392H17.8656C19.2229 106.392 20.4293 105.648 21.0626 104.534C23.0758 106.456 25.794 107.637 28.795 107.637H63.1818C70.7822 107.637 75.623 103.662 76.4788 96.7355L81.1009 67.3972C81.1461 67.3107 81.1687 67.2055 81.1687 67.0926Z" fill="url(#paint1_linear)"></path>
<path d="M20.8027 61.937V104.967" stroke="url(#paint2_linear)" stroke-width="3" stroke-miterlimit="10" stroke-linecap="round" stroke-linejoin="round"></path>
<defs>
<linearGradient id="paint0_linear" x1="11.0587" y1="62.5024" x2="11.0587" y2="104.408" gradientUnits="userSpaceOnUse">
<stop></stop>
<stop offset="1" stop-color="#0047FF"></stop>
</linearGradient>
<linearGradient id="paint1_linear" x1="40.8441" y1="30.0347" x2="40.8441" y2="107.637" gradientUnits="userSpaceOnUse">
<stop></stop>
<stop offset="1" stop-color="#0047FF"></stop>
</linearGradient>
<linearGradient id="paint2_linear" x1="21.3027" y1="61.937" x2="21.3027" y2="111.22" gradientUnits="userSpaceOnUse">
<stop stop-color="white"></stop>
<stop offset="1" stop-color="white"></stop>
</linearGradient>
</defs>
</svg>

<svg width="82" height="108" viewBox="0 0 82 108" fill="none" xmlns="http://www.w3.org/2000/svg"><path d="M18.744 104.408H3.37a.868.868 0 0 1-.852-.854V63.356c0-.459.392-.854.852-.854h15.374c.46 0 .856.395.856.854v40.198a.854.854 0 0 1-.856.854z" fill="#fff" stroke="url(#a)" stroke-miterlimit="10" stroke-linecap="round" stroke-linejoin="round"/><path d="M41.504 2.626v17.301a2 2 0 0 0 1.994 1.99c1.094 0 1.99-.895 1.99-1.99V2.626a2 2 0 0 0-1.99-1.99c-1.12 0-1.994.9-1.994 1.99zM79.525 39.522H62.18c-1.093 0-1.99.894-1.99 1.989 0 1.094.897 1.989 1.99 1.989h17.346a2 2 0 0 0 1.995-1.99c0-1.094-.898-1.988-1.995-1.988zM5.451 41.51a2 2 0 0 0 1.995 1.99h17.346a2 2 0 0 0 1.994-1.99c0-1.094-.897-1.988-1.994-1.988H7.445a2 2 0 0 0-1.994 1.989zM16.226 13.941a1.98 1.98 0 0 0 .592-1.399 1.98 1.98 0 0 0-.592-1.398 1.99 1.99 0 0 0-1.403-.59c-.524 0-1.029.217-1.402.59a1.98 1.98 0 0 0-.592 1.398c0 .523.219 1.027.592 1.4.373.371.875.59 1.402.59.528 0 1.034-.219 1.403-.59zM21.595 19.295a1.992 1.992 0 0 0 1.402 3.388c.505 0 1.03-.195 1.402-.59a1.992 1.992 0 0 0 0-2.798 2.004 2.004 0 0 0-2.805 0zM20.323 18.027a1.992 1.992 0 0 0 0-2.797 2.004 2.004 0 0 0-2.805 0 1.992 1.992 0 0 0 0 2.797 1.95 1.95 0 0 0 1.403.568 1.868 1.868 0 0 0 1.402-.567zM25.688 23.38c-.373.372-.569.872-.569 1.398 0 .527.219 1.027.592 1.4.373.371.875.59 1.403.59.524 0 1.029-.219 1.402-.59a1.98 1.98 0 0 0 .592-1.4c0-.522-.219-1.026-.592-1.399a1.99 1.99 0 0 0-2.828 0zM68.882 12.413a1.98 1.98 0 0 0-.592 1.399c0 .526.219 1.027.592 1.399.373.372.875.59 1.402.59.524 0 1.03-.218 1.403-.59s.57-.873.57-1.399c0-.523-.22-1.027-.57-1.399a1.975 1.975 0 0 0-1.403-.568c-.505-.022-1.033.196-1.402.568zM62.114 23.928c.506 0 1.007-.195 1.403-.567a1.987 1.987 0 0 0 0-2.794 2 2 0 0 0-2.801 0 1.987 1.987 0 0 0 0 2.794c.388.39.893.567 1.398.567zM64.806 16.474a1.987 1.987 0 0 0 1.403 3.385 1.987 1.987 0 0 0 1.402-3.384 2.004 2.004 0 0 0-2.805 0zM56.045 26.045c0 .526.219 1.026.592 1.399.373.372.875.59 1.402.59a1.99 1.99 0 0 0 1.403-.59 1.98 1.98 0 0 0 .592-1.4c0-.522-.219-1.026-.592-1.398a1.969 1.969 0 0 0-1.403-.568c-.524 0-1.029.218-1.402.568s-.592.876-.592 1.399z" fill="#000"/><path d="M81.169 67.093c0-6.16-5.014-11.165-11.194-11.165h-17.39V43.41c0-5.265-1.535-9.066-4.6-11.296-4.819-3.539-11.454-1.508-11.718-1.422a1.967 1.967 0 0 0-1.38 1.88V46.6c0 11.055-12.855 14.834-13.406 14.985-.26.067-.483.199-.679.35a3.698 3.698 0 0 0-2.891-1.4H4.22c-2.035 0-3.701 1.663-3.701 3.693V102.7a3.706 3.706 0 0 0 3.702 3.693h13.644a3.683 3.683 0 0 0 3.197-1.858 11.155 11.155 0 0 0 7.732 3.103h34.387c7.6 0 12.441-3.975 13.297-10.901L81.1 67.397a.66.66 0 0 0 .068-.304z" fill="url(#b)"/><path d="M20.803 61.937v43.03" stroke="url(#c)" stroke-width="3" stroke-miterlimit="10" stroke-linecap="round" stroke-linejoin="round"/><defs><linearGradient id="a" x1="11.059" y1="62.502" x2="11.059" y2="104.408" gradientUnits="userSpaceOnUse"><stop/><stop offset="1" stop-color="#0047FF"/></linearGradient><linearGradient id="b" x1="40.844" y1="30.035" x2="40.844" y2="107.637" gradientUnits="userSpaceOnUse"><stop/><stop offset="1" stop-color="#0047FF"/></linearGradient><linearGradient id="c" x1="21.303" y1="61.937" x2="21.303" y2="111.22" gradientUnits="userSpaceOnUse"><stop stop-color="#fff"/><stop offset="1" stop-color="#fff"/></linearGradient></defs></svg>
